X: 165
T:The Connaughtman's Rambles
N: page 53
N: hexatonic
N: matches 22
M:6/8
R:jig
A:Ireland
K:Bmin
A/G/|"D"FAA dAA|"G"BAB "D"dAG|FAA dfe|\
"Bm"dBB BAG|"D"FAA dAA|
"G"BAB "D"def|"Em"gfe dfe|"Bm"dBB B2::\
e|"D"fbb faa|fef d2e|
fbb faa|fed "A"ede|"D"fbb afe|\
fef def|"Em"gfe dfe|"Bm"dBB B2:|
